!!!COA:	Josquin des Prez
!!!CDT:	~1450-1521/08/27
!!!OTL:	Dilectus Deo et hominibus
!!!AGN:	Motet
!!!SCT:	NJE 14.4
!!!SCA:	New Josquin Edition 14.4
!!!voices:	4
**kern	**kern	**kern	**kern
*staff4	*staff3	*staff2	*staff1
*Ivox	*Ivox	*Ivox	*Ivox
*I"Bassus	*I"Tenor	*I"Altus	*I"Superius
*I'B	*I'T	*I'A	*I'S
*clefF4	*clefGv2	*clefGv2	*clefG2
*k[]	*k[]	*k[]	*k[]
*M2/1	*M2/1	*M2/1	*M2/1
*met(C|)	*met(C|)	*met(C|)	*met(C|)
=1-	=1-	=1-	=1-
0G	0G	0r	0r
=2	=2	=2	=2
0G	0B	0d	0g
=3	=3	=3	=3
1C/	1c\	0e	0g
1C/	1c\	.	.
=4	=4	=4	=4
[0C	[0G	1e\	1g/
.	.	1c\	1e/
=5	=5	=5	=5
0C]	0G]	[0c	[0e
=6	=6	=6	=6
1r	1r	0c]	0e]
[1C/	[1G/	.	.
=7	=7	=7	=7
1C/]	1G/]	1r	1r
1AA/	[1A/	1c\	1e/
=8	=8	=8	=8
1AA/	1A/]	1c\	1e/
1AA/	1A/	1c\	1e/
=9	=9	=9	=9
0D	1A/	0d	0f
.	1B\	.	.
=10	=10	=10	=10
[0C	0c	[0G	0e
=11	=11	=11	=11
0C]	1r	0G]	1r
.	1c\	.	1e/
=12	=12	=12	=12
0r	1.c\	0r	1.g/
.	2c\	.	2g/
=13	=13	=13	=13
1r	1B\	1r	1g/
1E\	1B\	1e\	1g/
=14	=14	=14	=14
1F\	1A/	1c\	0a
1F\	2r	1d\	.
.	2A/	.	.
=15	=15	=15	=15
1E\	1B\	1e\	1r
1E\	1c\	1e\	1g/
=16	=16	=16	=16
1D\	0d	1.A/	1f/
1D\	.	.	1d/
.	.	2B\	.
=17	=17	=17	=17
1C/	1G/	1c\	1e/
1D\	[1B\	1F/	1f/
=18	=18	=18	=18
1D\	2B\]	1F/	1d/
.	2A/	.	.
1AA/	[1A/	1E/	1c/
=19	=19	=19	=19
1BB/	1A/]	1E/	0d
1BB/	1G#i/	1D/	.
=20	=20	=20	=20
0AA	0A	0E	0c
=21	=21	=21	=21
1.AA/	1.E/	1.A/	1.cc\
2AA/	2E/	2A/	2cc\
=22	=22	=22	=22
1AA/	1E/	1A/	1cc\
1AA/	1E/	1A/	1cc\
=23	=23	=23	=23
[0GG	1G/	0D	0b
.	1G/	.	.
=24	=24	=24	=24
0GG]	1G/	2r	1r
.	.	1d\	.
.	1G/	.	2.b\
.	.	2e\	.
.	.	.	4cc\
=25	=25	=25	=25
0r	1G/	2d\	2dd\
.	.	1g\	1ee\
.	1G/	.	.
.	.	4f\	4dd\
.	.	4e\	4cc\
=26	=26	=26	=26
0r	1G/	4d\	2b\
.	.	4c\	.
.	.	4B\	2.dd\
.	.	4A\	.
.	1G/	2G/	.
.	.	.	4cc\
.	.	[2g\	4b\
.	.	.	4a\
=27	=27	=27	=27
0r	0G	2g\]	2g/
.	.	4f\	1cc\
.	.	4e\	.
.	.	1d\	.
.	.	.	2b\
=28	=28	=28	=28
2r	2r	1c\	0cc
2F\	2A/	.	.
2F\	2A/	1c\	.
2E\	2G/	.	.
=29	=29	=29	=29
2F\	2A/	1c\	0r
2E\	2G/	.	.
2C/	2E/	1c\	.
[2F\	[2A/	.	.
=30	=30	=30	=30
2F\]	2A/]	2.c\	0r
4E\	4G/	.	.
4D\	4F/	4B\	.
2E\	2G/	2c\	.
[2F\	[2A/	[2d\	.
=31	=31	=31	=31
4F\]	2A/]	2d\]	0r
4E\	.	.	.
2C/	1G/	1c\	.
1D\	.	.	.
.	2F/	2B\	.
=32	=32	=32	=32
1C/	1G/	1c\	1r
1C/	2r	1c\	1e/
.	[2G/	.	.
=33	=33	=33	=33
1C/	2G/]	1e\	1e/
.	1A/	.	.
1D\	.	1d\	1f/
.	[2B\	.	.
=34	=34	=34	=34
2.E\	2B\]	1G/	1g/
.	1c\	.	.
4D\	.	.	.
2C/	.	2r	1g/
2BB/	2d\	[2G/	.
=35	=35	=35	=35
2C/	2e\	4G/]	1g/
.	.	4A/	.
2GG/	1d\	2B\	.
1C/	.	1c\	1g/
.	[2c\	.	.
=36	=36	=36	=36
1G\	2c\]	1d\	1g/
.	2B\	.	.
1C/	[1c\	1e\	1g/
=37	=37	=37	=37
2r	1c\]	1A/	2r
2F\	.	.	2a/
2F\	2r	1r	2a/
2E\	2c\	.	2g/
=38	=38	=38	=38
2F\	2c\	2.c\	2a/
2E\	2c\	.	2g/
.	.	4d\	.
2C/	2c\	2e\	2e/
[2F\	2c\	2f\	[2a/
=39	=39	=39	=39
2F\]	1c\	2c\	2a/]
4E\	.	2f\	4g/
4D\	.	.	4f/
2E\	1c\	2e\	2g/
2F\	.	2A/	[2a/
=40	=40	=40	=40
2G\	2B\	2B\	2a/]
2E\	2G/	2c\	1g/
1D\	1A/	1d\	.
.	.	.	2f#i/
=41	=41	=41	=41
0GG	0G	0d	0g
=42	=42	=42	=42
2r	1G/	0r	0r
1G\	.	.	.
.	1G/	.	.
4F\	.	.	.
4E\	.	.	.
=43	=43	=43	=43
2F\	1A/	0r	0r
2D\	.	.	.
4E\	1G/	.	.
4F\	.	.	.
2G\	.	.	.
=44	=44	=44	=44
2F\	1A/	0r	0r
2E\	.	.	.
1D\	1B\	.	.
=45	=45	=45	=45
1C/	1c\	0r	0r
[1F\	2r	.	.
.	[2c\	.	.
=46	=46	=46	=46
1F\]	2c\]	0r	0r
.	2d\	.	.
2E\	2c\	.	.
2F\	[2d\	.	.
=47	=47	=47	=47
1G\	2d\]	0r	0r
.	4c\	.	.
.	4B\	.	.
2F\	2A/	.	.
[2A\	[2c\	.	.
=48	=48	=48	=48
2A\]	4c/]	0r	0r
.	4B/	.	.
1G\	4A/	.	.
.	4G/	.	.
.	1A/	.	.
2F#i\	.	.	.
=49	=49	=49	=49
1G\	[0G	0r	0r
2r	.	.	.
[2C/	.	.	.
=50	=50	=50	=50
2C/]	1G/]	0r	0r
4BB/	.	.	.
4AA/	.	.	.
2BB/	2r	.	.
[2C/	[2G/	.	.
=51	=51	=51	=51
4C/]	2G/]	0r	0r
4BB/	.	.	.
4AA/	4F/	.	.
4GG/	4E/	.	.
2AA/	2F/	.	.
2GG/	[2G/	.	.
=52	=52	=52	=52
1.C/	4G/]	0r	0r
.	4F/	.	.
.	4E/	.	.
.	4D/	.	.
.	2E/	.	.
2D\	2D/	.	.
=53	=53	=53	=53
2E\	1.G/	0r	0r
2F\	.	.	.
[1G\	.	.	.
.	2A/	.	.
=54	=54	=54	=54
2G\]	2B\	0r	0r
4F\	2c\	.	.
4E\	.	.	.
2F\	2d\	.	.
2E\	[2c\	.	.
=55	=55	=55	=55
1D\	2c\]	0r	0r
.	2B\	.	.
1C/	1c\	.	.
=56	=56	=56	=56
1.C/	1.G/	1.c\	1.e/
2C/	2G/	2c\	2e/
=57	=57	=57	=57
1AA/	0A	1c\	1e/
[1D\	.	2.d\	[1f/
.	.	4c\	.
=58	=58	=58	=58
1D\]	1F/	2A/	1f/]
.	.	2B\	.
1C/	1G/	1c\	1e/
=59	=59	=59	=59
0C	1A/	0c	2r
.	.	.	2.e/
.	1G/	.	.
.	.	.	4d/
.	.	.	4e/
.	.	.	4f/
=60	=60	=60	=60
0C	2r	0c	2g/
.	2.E/	.	1a/
.	4D/	.	.
.	4E/	.	4g/
.	4F/	.	4f/
=61	=61	=61	=61
0C	2G/	0c	2e/
.	1A/	.	2c/
.	.	.	2e/
.	4G/	.	2f/
.	4F/	.	.
=62	=62	=62	=62
0C	2.E/	[0c	1g/
.	4F/	.	.
.	2G/	.	1c/
.	[2A/	.	.
=63	=63	=63	=63
0AA	2A/]	0c]	1.cc\
.	1G/	.	.
.	2F#i/	.	4b/
.	.	.	4a/
=64	=64	=64	=64
0GG	[0G	2r	[0b
.	.	1d\	.
.	.	2e\	.
=65	=65	=65	=65
1r	0G]	2d\	0b]
.	.	1g\	.
[1G\	.	.	.
.	.	4f\	.
.	.	4e\	.
=66	=66	=66	=66
1G\]	1r	2d\	1r
.	.	2G/	.
[1G\	[1d\	1g\	[1b\
=67	=67	=67	=67
1G\]	1d\]	0g	1b\]
1G\	1d\	.	1b\
=68	=68	=68	=68
1.C/	1.e\	1.g\	1.cc\
2D\	2d\	2f\	2b\
=69	=69	=69	=69
1F\	1c\	1f\	1a/
1G\	1B\	1e\	[1g/
=70	=70	=70	=70
0D	0A	0d	2g/]
.	.	.	4f#i/
.	.	.	4e/
.	.	.	1f#i/
=71	=71	=71	=71
1E\	1r	1B\	0g
1C/	1G/	2r	.
.	.	[2c\	.
=72	=72	=72	=72
1F\	1A/	2c\]	0r
.	.	2d\	.
1E\	1G/	2e\	.
.	.	2c\	.
=73	=73	=73	=73
1F\	1A/	2d\	0r
.	.	1c\	.
1A\	[1c\	.	.
.	.	[2f\	.
=74	=74	=74	=74
0G	2c\]	2f\]	1r
.	4B/	4e\	.
.	4A/	4d\	.
.	1B\	1e\	1g/
=75	=75	=75	=75
1F\	[0c	1f\	1a/
1C/	.	1e\	1g/
=76	=76	=76	=76
1F\	0c]	1f\	1a/
1r	.	1e\	[1cc\
=77	=77	=77	=77
1r	0G	0d	2cc\]
.	.	.	4b/
.	.	.	4a/
1G\	.	.	1b\
=78	=78	=78	=78
1A\	2r	1c\	1cc\
.	2c\	.	.
2F\	2d\	1r	1r
2F\	2d\	.	.
=79	=79	=79	=79
1G\	1B\	0r	0r
2E\	1c\	.	.
[2A\	.	.	.
=80	=80	=80	=80
4A\]	2A/	0r	1r
4G\	.	.	.
4F\	2.d\	.	.
4E\	.	.	.
1D\	.	.	1dd\
.	4c\	.	.
.	4B\	.	.
.	4A\	.	.
=81	=81	=81	=81
0r	1G/	1g\	2ee\
.	.	.	2ee\
.	1r	2a\	1cc\
.	.	2a\	.
=82	=82	=82	=82
0r	0r	1f\	1dd\
.	.	1g\	2b\
.	.	.	[2ee\
=83	=83	=83	=83
0r	1r	2e\	4ee\]
.	.	.	4dd\
.	.	2.a\	4cc\
.	.	.	4b\
.	1d\	.	1a/
.	.	4g\	.
.	.	4f\	.
.	.	4e\	.
=84	=84	=84	=84
0r	1B\	2d\	1dd\
.	.	1g\	.
.	1c\	.	1ee\
.	.	[2a\	.
=85	=85	=85	=85
0r	1A/	2a\]	1cc\
.	.	1f\	.
.	2d\	.	2dd\
.	[2c\	[2g\	[2ee\
=86	=86	=86	=86
0r	4c\]	4g\]	4ee\]
.	4d\	4f\	4dd\
.	2B\	2d\	1dd\
.	1A/	1e\	.
.	.	.	2cci#\
=87	=87	=87	=87
1G\	0B	0d	0dd
2G\	.	.	.
2G\	.	.	.
=88	=88	=88	=88
1F\	1.A/	0r	0r
1D\	.	.	.
.	[2d\	.	.
=89	=89	=89	=89
1E\	2d\]	1g\	0r
.	4c\	.	.
.	4B\	.	.
1E\	1c\	2g\	.
.	.	2g\	.
=90	=90	=90	=90
0D	2r	1f\	0r
.	2d\	.	.
.	2d\	1d\	.
.	2d\	.	.
=91	=91	=91	=91
0r	1c\	1e\	0r
.	1A/	1e\	.
=92	=92	=92	=92
0r	1B\	1.d\	1dd\
.	1B\	.	2dd\
.	.	2e\	2dd\
=93	=93	=93	=93
0F	2.A/	1f\	1cc\
.	4B\	.	.
.	2c\	2c\	1a/
.	[2d\	[2f\	.
=94	=94	=94	=94
0G	4d\]	2f\]	1b\
.	4c\	.	.
.	4B\	4e\	.
.	4A\	4d\	.
.	1B\	1e\	1b\
=95	=95	=95	=95
0F	0c	[0f	[0a
=96	=96	=96	=96
0F	1r	0f]	0a]
.	1A/	.	.
=97	=97	=97	=97
0D	1.d\	0r	1r
.	.	.	1a/
.	2c\	.	.
=98	=98	=98	=98
1r	1B\	0r	1.dd\
1D\	1A/	.	.
.	.	.	2cc\
=99	=99	=99	=99
1.G\	2.G/	1r	1b\
.	4A/	.	.
.	4B\	2r	1a/
.	4c\	.	.
2F\	[2d\	2d\	.
=100	=100	=100	=100
1E\	2d\]	1.g\	2.g/
.	2c\	.	.
.	.	.	4a/
1D\	2d\	.	2b\
.	2A/	4f\	[2a/
.	.	4e\	.
=101	=101	=101	=101
1C/	2.c\	1e\	2a/]
.	.	.	1g/
.	4B\	.	.
1D\	1A/	1d\	.
.	.	.	2f#i/
=102	=102	=102	=102
1r	[0G	2.B\	[0g
.	.	4c\	.
2.GG/	.	2d\	.
.	.	[2e\	.
4AA/	.	.	.
=103	=103	=103	=103
2BB/	0G]	4e\]	1g/]
.	.	4d\	.
1C/	.	2c\	.
.	.	1d\	1r
2BB/	.	.	.
=104	=104	=104	=104
2.C/	1r	1c\	1g/
4D\	.	.	.
4E\	2.G/	2.B\	1r
4F\	.	.	.
[2G\	.	.	.
.	4A/	4c\	.
=105	=105	=105	=105
2G\]	2B\	2d\	0r
4F\	1c\	1G/	.
4E\	.	.	.
1D\	.	.	.
.	2B\	2F/	.
=106	=106	=106	=106
*M2/1	*M2/1	*M2/1	*M2/1
*met(3)	*met(3)	*met(3)	*met(3)
3%4C	3%4c	3%4G	3%4e
3%2AA/	[3%2c\	[3%2A/	3%2e/
=107	=107	=107	=107
3%4AA	3%2c\]	3%2A/]	3%4e
.	3%4A	3%2c\	.
3%2D\	.	3%2d\	3%2f/
=108	=108	=108	=108
3%4C	3%4c	3%4e	3%2g/
.	.	.	1a/
[3%2E\	3%2B\	3%2e\	.
.	.	.	3g/
=109	=109	=109	=109
3%2E\]	3%2G/	3%2c\	3%4g
3%4D	3%4A	3%4d	.
.	.	.	3%2f#i/
=110	=110	=110	=110
0E	1G/	0G	0g
.	3A/	.	.
.	3%2B\	.	.
=111	=111	=111	=111
0C	3%4c	0G	[0el
.	3%2B\	.	.
=112	=112	=112	=112
0Cl	0cl	0Gl	0e]
!!LO:B:i:g=z
=113||	=113||	=113||	=113||
*>B	*>B	*>B	*>B
*k[]	*k[]	*k[]	*k[]
*M2/1	*M2/1	*M2/1	*M2/1
*met(C|)	*met(C|)	*met(C|)	*met(C|)
!!section: Secunda pars: Christus pungavit
!!!OMD: Secunda pars: Christus pungavit
!	!	!	!
0C	1.c\	0e	0cc
.	2B\	.	.
=114	=114	=114	=114
1F\	1A/	1d\	1dd\
1E\	[1G/	2c\	1ee\
.	.	[2c\	.
=115	=115	=115	=115
0D	1G/]	2c\]	0ff
.	.	4B/	.
.	.	4A/	.
.	1F/	1B\	.
=116	=116	=116	=116
0C	0G	[0c	1.ee\
.	.	.	4dd\
.	.	.	4ee\
=117	=117	=117	=117
1C/	1r	1c\]	2ff\
.	.	.	1ee\
1C/	[1e\	[1g\	.
.	.	.	4dd\
.	.	.	4cc\
=118	=118	=118	=118
[0GG	2e\]	0g]	0b
.	1d\	.	.
.	[2e\	.	.
=119	=119	=119	=119
0GG_	2e\]	2g\	1r
.	4d\	1g\	.
.	4c\	.	.
.	1B\	.	[1b\
.	.	4f\	.
.	.	4e\	.
=120	=120	=120	=120
0GG]	1r	2.d\	1b\]
.	.	4c\	.
.	1G/	2d\	1b\
.	.	[2e\	.
=121	=121	=121	=121
0r	1A/	4e\]	2.cc\
.	.	4d\	.
.	.	4e\	.
.	.	4f\	4dd\
.	1G/	1g\	2ee\
.	.	.	[2dd\
=122	=122	=122	=122
0r	1A/	2f\	4dd\]
.	.	.	4cc\
.	.	2c\	1cc\
.	1G/	1d\	.
.	.	.	2b\
=123	=123	=123	=123
0r	2.A/	[0c	2.cc\
.	4G/	.	4b\
.	4F/	.	4a/
.	4E/	.	4g/
.	[2F/	.	[2a/
=124	=124	=124	=124
0r	2F/]	0c]	2a/]
.	4E/	.	4g/
.	4D/	.	4f/
.	1C/	.	2e/
.	.	.	[2g/
=125	=125	=125	=125
0r	0G	0B	2g/]
.	.	.	4f/
.	.	.	4e/
.	.	.	1d/
=126	=126	=126	=126
1r	1r	0c	0e
1C/	1G/	.	.
=127	=127	=127	=127
2BB/	1G/	0r	0r
1C/	.	.	.
.	2A/	.	.
2E\	[2c\	.	.
=128	=128	=128	=128
1D\	2c\]	0r	0r
.	2B\	.	.
2r	1c\	.	.
[2C/	.	.	.
=129	=129	=129	=129
4C/]	1c\	0r	0r
4D/	.	.	.
2E\	.	.	.
4F\	1c\	.	.
4E\	.	.	.
[2A\	.	.	.
=130	=130	=130	=130
4A\]	1B\	0r	0r
4G\	.	.	.
1G\	.	.	.
.	1A/	.	.
2F#i\	.	.	.
=131	=131	=131	=131
1G\	2r	0r	0r
.	2.G/	.	.
[1C/	.	.	.
.	4F/	.	.
.	4G/	.	.
.	4A/	.	.
=132	=132	=132	=132
1C/]	4E/	0r	0r
.	4F/	.	.
.	4G/	.	.
.	4A/	.	.
1C/	2G/	.	.
.	[2c\	.	.
=133	=133	=133	=133
0D	2c\]	0r	0r
.	4B/	.	.
.	4A/	.	.
.	2B\	.	.
.	[2A/	.	.
=134	=134	=134	=134
1C/	4A/]	0r	0r
.	4G/	.	.
.	4F/	.	.
.	4E/	.	.
1BB/	2D/	.	.
.	[2G/	.	.
=135	=135	=135	=135
0AA	2G/]	0r	0r
.	4F#i/	.	.
.	4E/	.	.
.	1F#i/	.	.
=136	=136	=136	=136
0GG	0G	1r	1r
.	.	1G/	[1g/
=137	=137	=137	=137
0r	0r	1c\	1g/]
.	.	1B\	1g/
=138	=138	=138	=138
0r	0r	1c\	1a/
.	.	1d\	1b\
=139	=139	=139	=139
0r	0r	1e\	0cc
.	.	1f\	.
=140	=140	=140	=140
0r	0r	[0g	1.b\
.	.	.	4cc\
.	.	.	4dd\
=141	=141	=141	=141
0r	0r	0g]	2ee\
.	.	.	1dd\
.	.	.	4cc\
.	.	.	4b\
=142	=142	=142	=142
0r	0r	1f\	2a/
.	.	.	2g/
.	.	1f\	1a/
=143	=143	=143	=143
0r	0r	2e\	2g/
.	.	1e\	4a/
.	.	.	4b/
.	.	.	1cc\
.	.	4d\	.
.	.	4c\	.
=144	=144	=144	=144
0r	0r	1d\	2b\
.	.	.	1a/
.	.	1d\	.
.	.	.	4g/
.	.	.	4f/
=145	=145	=145	=145
0r	0r	2c\	2e/
.	.	4d\	4f/
.	.	4e\	4g/
.	.	1f\	1a/
=146	=146	=146	=146
0r	0r	2e\	2g/
.	.	1d\	1f/
.	.	4c\	4e/
.	.	4B\	4d/
=147	=147	=147	=147
2r	0r	0c	0e
1A\	.	.	.
4G\	.	.	.
4F\	.	.	.
=148	=148	=148	=148
2E\	0r	2r	2r
2A\	.	1c\	1e/
2r	.	.	.
[2A\	.	2c\	2e/
=149	=149	=149	=149
2A\]	0r	1c\	2e/
4G\	.	.	2e/
4F\	.	.	.
2E\	.	1c\	2e/
2G\	.	.	2e/
=150	=150	=150	=150
0D	0r	1d\	2.f/
.	.	.	4g/
.	.	1d\	4a/
.	.	.	4b-i/
.	.	.	[2a/
=151	=151	=151	=151
1F\	0r	1c\	4a/]
.	.	.	4g/
.	.	.	4f/
.	.	.	4e/
1G\	.	1B\	2d/
.	.	.	[2g/
=152	=152	=152	=152
0D	0r	0A	2g/]
.	.	.	4f#i/
.	.	.	4e/
.	.	.	1f#i/
=153	=153	=153	=153
0G	0r	2G/	0g
.	.	2.B\	.
.	.	4c\	.
.	.	[2d\	.
=154	=154	=154	=154
1F\	0r	4d\]	0r
.	.	4c\	.
.	.	4B\	.
.	.	4A\	.
1E\	.	2G/	.
.	.	[2c\	.
=155	=155	=155	=155
0D	0r	2c\]	0r
.	.	4B/	.
.	.	4A/	.
.	.	1B\	.
=156	=156	=156	=156
0C	1c\	1c\	1r
.	2c\	1r	2g/
.	[2c\	.	4g/
.	.	.	4g/
=157	=157	=157	=157
0r	4c\]	0r	2.g/
.	4c\	.	.
.	2c\	.	.
.	.	.	4g/
.	2c\	.	2g/
.	2B\	.	2g/
=158	=158	=158	=158
0r	2A/	0r	2f/
.	2c\	.	2e/
.	2G/	.	2g/
.	2r	.	2d/
=159	=159	=159	=159
0r	2A/	0r	2r
.	2B\	.	2d/
.	2c\	.	2e/
.	[2d\	.	[2f/
=160	=160	=160	=160
0r	4d\]	0r	2f/]
.	4c\	.	.
.	1c\	.	2e/
.	.	.	2c/
.	2B\	.	2d/
=161	=161	=161	=161
1.C/	1c\	1.G/	1c/
.	1r	.	1r
2BB/	.	2G/	.
=162	=162	=162	=162
1C/	0r	1A/	0r
1D\	.	1B\	.
=163	=163	=163	=163
1.E\	0r	1.c\	0r
2D\	.	2B\	.
=164	=164	=164	=164
1C/	0r	1A/	0r
1BB/	.	1G/	.
=165	=165	=165	=165
2.AA/	0r	0A	0r
4BB/	.	.	.
2C/	.	.	.
[2D\	.	.	.
=166	=166	=166	=166
4D\]	0r	1A/	0r
4E\	.	.	.
2F\	.	.	.
2.G\	.	[1B\	.
8F\L	.	.	.
8E\J	.	.	.
=167	=167	=167	=167
1D\	0r	1B\]	0r
1C/	.	1c\	.
=168	=168	=168	=168
2r	0r	1d\	0r
1G\	.	.	.
.	.	2B\	.
[2A\	.	[2c\	.
=169	=169	=169	=169
2A\]	0r	2c\]	0r
1G\	.	2B\	.
.	.	1A/	.
2F#i\	.	.	.
=170	=170	=170	=170
[0G	0r	1G/	2r
.	.	.	2d/
.	.	2r	2d/
.	.	2G/	4c/
.	.	.	4d/
=171	=171	=171	=171
0G_	0r	4G/	2e/
.	.	4A/	.
.	.	4B/	1d/
.	.	4c/	.
.	.	2d\	.
.	.	[2e\	[2g/
=172	=172	=172	=172
0G]	1r	4e\]	2g/]
.	.	4d\	.
.	.	1c\	4f/
.	.	.	4e/
.	1G/	.	1d/
.	.	2B\	.
=173	=173	=173	=173
0C	1A/	1c\	1c/
.	1c\	2r	1r
.	.	2c\	.
=174	=174	=174	=174
0r	1B\	1d\	1g/
.	1A/	1f\	1a/
=175	=175	=175	=175
1C/	1r	1e\	1cc\
1D\	2r	1d\	1b\
.	[2F/	.	.
=176	=176	=176	=176
1F\	4F/]	1r	1a/
.	4G/	.	.
.	2A/	.	.
1E\	2B\	1G/	2r
.	[2c\	.	2g/
=177	=177	=177	=177
2D\	2c\]	1A/	2f/
2D\	4B/	.	1a/
.	4A/	.	.
1D\	1B\	1F/	.
.	.	.	4g/
.	.	.	4f/
=178	=178	=178	=178
[0C	0c	2r	[0e
.	.	2G/	.
.	.	1A/	.
=179	=179	=179	=179
0C]	2r	1G/	0e]
.	2G/	.	.
.	1A/	2.c\	.
.	.	4B\	.
=180	=180	=180	=180
0r	1G/	4c\	2r
.	.	4d\	.
.	.	1e\	2g/
.	2c\	.	1a/
.	[2c\	4d\	.
.	.	4c\	.
=181	=181	=181	=181
2r	2c\]	1d\	1g/
2G\	2B\	.	.
1A\	1c\	2c\	2e/
.	.	[2c\	2f/
=182	=182	=182	=182
1G\	2r	2c\]	1d/
.	1G/	2B\	.
2E\	.	1c\	2c/
2F\	[2A/	.	[2c/
=183	=183	=183	=183
2D\	2A/]	2r	2c/]
2D\	2F/	2d\	2B/
1C/	2G/	1e\	2c/
.	2c\	.	[2g/
=184	=184	=184	=184
2r	2B\	1d\	2g/]
2D\	2.A/	.	2f/
1E\	.	2B\	1g/
.	4G/	.	.
.	[2G/	2c\	.
=185	=185	=185	=185
1D\	2G/]	1A/	1r
.	2F/	.	.
2BB/	2G/	2G/	1dd\
2GG/	[2D/	[2G/	.
=186	=186	=186	=186
2AA/	2D/]	2G/]	1cc\
2AA/	2C/	2F/	.
2GG/	1D/	2G/	2b\
2r	.	2F/	[2a/
=187	=187	=187	=187
1r	1E/	1G/	4a/]
.	.	.	4g/
.	.	.	1g/
2r	1D/	1A/	.
2D\	.	.	2f#i/
=188	=188	=188	=188
2E\	[0G	1G/	2g/
2.G\	.	.	2.b\
.	.	1r	.
4F\	.	.	4a/
4E\	.	.	4g/
4D\	.	.	4f/
=189	=189	=189	=189
2C/	1G/]	1c\	4e/
.	.	.	4d/
2E\	.	.	1g/
1D\	1A/	1d\	.
.	.	.	2f#i/
=190	=190	=190	=190
[0GG	[0G	0d	0g
=191	=191	=191	=191
0GG]	0G]	1r	1r
.	.	1g\	1g/
=192	=192	=192	=192
0r	0r	1f\	1a/
.	.	1d\	1b\
=193	=193	=193	=193
0r	0r	1e\	1cc\
.	.	1f\	1a/
=194	=194	=194	=194
0r	0r	1d\	1b\
.	.	1e\	1g/
=195	=195	=195	=195
0r	0r	1.e\	1.cc\
.	.	2d\	[2b\
=196	=196	=196	=196
0r	0r	1c\	4b/]
.	.	.	4a/
.	.	.	1a/
.	.	1B\	.
.	.	.	2g#i/
=197	=197	=197	=197
1r	0r	0A	0a
1D\	.	.	.
=198	=198	=198	=198
1F\	1A/	0r	0r
2.F\	1c\	.	.
4F\	.	.	.
=199	=199	=199	=199
2F\	2.c\	0r	0r
2F\	.	.	.
.	4c\	.	.
[1C/	2c\	.	.
.	2c\	.	.
=200	=200	=200	=200
2C/]	1G/	0r	0r
2D\	.	.	.
1E\	1c\	.	.
=201	=201	=201	=201
1D\	1B\	0r	0r
2BB/	2G/	.	.
[2C/	[2A/	.	.
=202	=202	=202	=202
2C/]	4A/]	1r	1r
.	4G/	.	.
2BB/	1G/	.	.
1AA/	.	1A/	1cc\
.	2F#i/	.	.
=203	=203	=203	=203
2GG/	2.G/	1d\	1b\
1G\	.	.	.
.	4A/	.	.
.	2B\	2e\	2g/
[2F\	[2c\	[2f\	[2a/
=204	=204	=204	=204
4F\]	4c\]	4f\]	4a/]
4G\	4B\	4e\	4g/
2E\	2G/	2c\	1g/
1D\	1A/	1d\	.
.	.	.	2f#i/
=205	=205	=205	=205
0GG	0G	0d	0g
=206	=206	=206	=206
*M3/1	*M3/1	*M3/1	*M3/1
*met()	*met(3)	*met()	*met()
0.r	0c	0.r	0.r
.	1c\	.	.
=207	=207	=207	=207
*M3/1	*	*M3/1	*M3/1
*met(3)	*	*met(3)	*met(3)
0.r	1c\	0.r	0cc
.	0c	.	.
.	.	.	1cc\
=208	=208	=208	=208
0F	1A/	0.r	1cc\
.	0A	.	0cc
1F\	.	.	.
=209	=209	=209	=209
1F\	1r	0f	1a/
0F	0A	.	1a/
.	.	1f\	1r
=210	=210	=210	=210
1D\	1A/	1f\	1r
0D	0d	0f	0a
=211	=211	=211	=211
1r	1.d\	1d\	1a/
0D	.	0d	0dd
.	2c\	.	.
.	1A/	.	.
=212	=212	=212	=212
1D\	0B	1r	1dd\
0G	.	0d	0b
.	[1G/	.	.
=213	=213	=213	=213
1B\	1G/]	0g	1dd\
0A	0c	.	1.cc\
.	.	1f#i\	.
.	.	.	4b/
.	.	.	4a/
=214	=214	=214	=214
0G	0d	0g	0b
1r	1r	1r	1r
=215	=215	=215	=215
0G	1B\	0e	0g
.	1B\	.	.
1F\	1A/	1d\	1a/
=216	=216	=216	=216
1E\	0G	1.c\	1cc\
0D	.	.	0dd
.	.	2B\	.
.	1F/	1B\	.
=217	=217	=217	=217
*M2/0	*M2/0	*M2/0	*M2/0
*met(C|)	*met(C|)	*met(C|)	*met(C|)
0C	0G	0c	0g
=218	=218	=218	=218
1r	1r	1r	1r
[1C/	1G/	[1c\	[1e/
=219	=219	=219	=219
1C/]	1G/	1c\]	1e/]
1C/	1G/	1c\	1e/
=220	=220	=220	=220
1C/	1G/	1c\	1e/
1C/	1A/	1c\	1c/
=221	=221	=221	=221
1GG/	1.G/	1B\	1d/
1GG/	.	1B\	1d/
.	4F/	.	.
.	4E/	.	.
=222	=222	=222	=222
0AA	[0E	1A/	1c/
.	.	2r	2r
.	.	2A/	2cc\
=223	=223	=223	=223
2r	0E]	4c\	2cc\
.	.	4d\	.
2AA/	.	4e\	4b/
.	.	4f\	4a/
2GG/	.	2g\	2b\
[2AA/	.	[2e\	[2cc\
=224	=224	=224	=224
4AA/]	1r	2e\]	2cc\]
4BB/	.	.	.
4C/	.	4d\	4b/
4D/	.	4c\	4a/
2E\	2r	2B\	2g/
2A\	2c\	2A/	2c/
=225	=225	=225	=225
2G\	2B\	[0e	1r
1A\	1c\	.	.
.	.	.	1cc\
4G\	4B/	.	.
4F\	4A/	.	.
=226	=226	=226	=226
0E	0G	0e]	2cc\
.	.	.	1b\
.	.	.	[2cc\
=227	=227	=227	=227
1F\	1A/	2c\	2cc\]
.	.	2d\	4b/
.	.	.	4a/
1E\	1B\	[1e\	[1g/
=228	=228	=228	=228
1C/	1c\	2e\]	2g/]
.	.	1c\	2.a/
[1D\	[1F/	.	.
.	.	.	4g/
.	.	4B/	4f/
.	.	4A/	4e/
=229	=229	=229	=229
1D\]	1F/]	1B\	1f/
[1C/	1G/	[1c\	1e/
=230	=230	=230	=230
0C]	2r	0c]	2r
.	2.G/	.	2.e/
.	4F/	.	4d/
.	2G/	.	2e/
=231	=231	=231	=231
2r	2A/	2r	2f/
2.C/	2G/	2.e\	1g/
.	1c\	.	.
4BB/	.	4d\	.
2C/	.	2e\	2e/
=232	=232	=232	=232
2D\	2r	2f\	2r
2E\	2.G/	1g\	2.e/
1C/	.	.	.
.	4F/	.	4d/
.	2G/	2e\	2e/
=233	=233	=233	=233
2r	2A/	2r	2f/
2.C/	2G/	2.e\	1g/
.	1c\	.	.
4BB/	.	4d\	.
2C/	.	2e\	2e/
=234	=234	=234	=234
2D\	2r	2f\	2r
2E\	2.G/	1g\	2.e/
1C/	.	.	.
.	4F/	.	4d/
.	2G/	2e\	2e/
=235	=235	=235	=235
2r	2A/	2r	2f/
2.C/	2G/	2.e\	2g/
.	1c\	.	2e/
4BB/	.	4d\	.
2C/	.	2e\	2a/
=236	=236	=236	=236
2D\	2B\	2d\	4a/
.	.	.	4g/
2E\	2G/	2c\	1g/
1D\	1A/	1d\	.
.	.	.	2f#i/
=237	=237	=237	=237
0GGl	0Gl	0dl	0gl
==	==	==	==
*-	*-	*-	*-
!!!RDF**kern: l=long note in original notation
!!!RDF**kern: i=editorial accidental
!!!RDF**kern: V=start of tuplet marker
!!!RDF**kern: Z=end of tuplet marker
!!!ENC:	Chris Gage 06-07-2012
!!!END:	2012/06/07/
!!!EED:	Jesse Rodin
!!!EEV:	2012/06/21/
!!attribution-level@Jos: 4 (questionable)
!!!ONB:	Translated from MusicXML and edited on 2012/06/21/ by Craig Sapp
!!muse2ps: C^@{COA}?\n@{SCT}^i2I150v85,85,85,150Q16
